src/public/images/research-development.svg

<svg width="111" height="184" viewBox="0 0 111 184" fill="none" xmlns="http://www.w3.org/2000/svg">
<path fill-rule="evenodd" clip-rule="evenodd" d="M49.7494 60.0218C53.0464 58.1217 58.3919 58.1217 61.689 60.0218L103.482 84.1073C104.649 84.7792 105.374 86.0155 105.391 87.3608L106.129 142.656C106.129 146.456 103.457 151.077 100.16 152.977L56.8573 177.59C55.6818 178.258 54.2403 178.254 53.0688 177.579L11.2979 153.506C8.0009 151.606 5.32812 146.985 5.32812 143.185L5.32942 88.5376C5.32942 87.1915 6.03947 85.9446 7.19758 85.2574L49.7494 60.0218ZM60.495 60.7098L102.289 84.796C103.454 85.4671 104.18 86.7034 104.198 88.0488L104.935 143.344L104.929 143.631C104.801 146.613 102.714 150.129 100.16 151.601L56.8573 176.214C55.6818 176.882 54.2403 176.878 53.0688 176.202L11.2979 152.13C8.74275 150.657 6.65593 147.142 6.52788 144.16L6.52209 143.872V89.2256C6.52209 87.8795 7.23213 86.6325 8.39025 85.9461L50.9434 60.7098L51.1952 60.5714C53.8466 59.1908 57.9398 59.2373 60.495 60.7098Z" fill="url(#paint0_linear_4810_7629)"/>
<path d="M104.199 88.0515C104.181 86.7061 103.456 85.4698 102.29 84.7987L60.4963 60.7125C57.9412 59.24 53.8479 59.1935 51.1966 60.5741L50.9447 60.7125L8.3916 85.9488C7.23348 86.6352 6.52344 87.8821 6.52344 89.2283V143.875L6.52923 144.163C6.65729 147.145 8.74411 150.66 11.2992 152.133L53.0701 176.205C54.2417 176.88 55.6831 176.884 56.8586 176.216L100.161 151.604C102.716 150.131 104.802 146.616 104.931 143.633L104.937 143.347L104.199 88.0515Z" fill="url(#paint1_linear_4810_7629)"/>
<path d="M104.199 88.0515C104.181 86.7061 103.456 85.4698 102.29 84.7987L60.4963 60.7125C57.9412 59.24 53.8479 59.1935 51.1966 60.5741L50.9447 60.7125L8.3916 85.9488C7.23348 86.6352 6.52344 87.8821 6.52344 89.2283V143.875L6.52923 144.163C6.65729 147.145 8.74411 150.66 11.2992 152.133L53.0701 176.205C54.2417 176.88 55.6831 176.884 56.8586 176.216L100.161 151.604C102.716 150.131 104.802 146.616 104.931 143.633L104.937 143.347L104.199 88.0515Z" fill="#F9F9F9"/>
<path d="M62.7093 138.441C66.5212 138.441 69.5708 141.491 69.5708 145.303C69.5708 146.645 69.1896 147.911 68.5187 148.962L73.2153 153.689L71.0958 155.809L66.3383 151.128C65.2862 151.783 64.0359 152.164 62.7093 152.164C58.8974 152.164 55.8479 149.115 55.8479 145.303C55.8479 141.491 58.8974 138.441 62.7093 138.441ZM62.7093 141.491C61.6983 141.491 60.7287 141.892 60.0139 142.608C59.299 143.322 58.8974 144.292 58.8974 145.303C58.8974 146.314 59.299 147.284 60.0139 147.998C60.7287 148.713 61.6983 149.115 62.7093 149.115C63.7203 149.115 64.6899 148.713 65.4048 147.998C66.1197 147.284 66.5212 146.314 66.5212 145.303C66.5212 144.292 66.1197 143.322 65.4048 142.608C64.6899 141.892 63.7203 141.491 62.7093 141.491ZM54.3232 126.243C55.9407 126.243 57.4921 126.886 58.6358 128.03C59.7796 129.173 60.4222 130.725 60.4222 132.342C60.4222 133.73 59.9495 135.011 59.1719 136.047C57.8606 136.535 56.6865 137.313 55.7107 138.289L54.3232 138.441C52.7055 138.441 51.1543 137.799 50.0104 136.655C48.8666 135.511 48.2241 133.96 48.2241 132.342C48.2241 130.725 48.8666 129.173 50.0104 128.03C51.1543 126.886 52.7055 126.243 54.3232 126.243ZM42.125 150.639V147.59C42.125 144.357 47.172 141.705 53.5607 141.491C53.0728 142.68 52.7983 143.962 52.7983 145.303C52.7983 147.27 53.3778 149.115 54.3232 150.639H42.125Z" fill="#389D2D"/>
<path d="M53.0156 66.456L15.6363 88.0369C13.9948 88.9846 13.9948 90.5212 15.6363 91.4689L51.8679 112.387C53.5094 113.335 56.1709 113.335 57.8124 112.387L95.1917 90.8063C96.8332 89.8586 96.8332 88.322 95.1917 87.3743L58.96 66.456C57.3185 65.5082 54.6571 65.5082 53.0156 66.456Z" stroke="#DDDDDD"/>
<path d="M104.896 131.143C107.897 131.143 110.33 128.709 110.33 125.708C110.33 122.707 107.897 120.273 104.896 120.273C101.894 120.273 99.4609 122.707 99.4609 125.708C99.4609 128.709 101.894 131.143 104.896 131.143Z" fill="#ACD4A7"/>
<path d="M104.901 128.969C106.702 128.969 108.162 127.509 108.162 125.708C108.162 123.907 106.702 122.447 104.901 122.447C103.101 122.447 101.641 123.907 101.641 125.708C101.641 127.509 103.101 128.969 104.901 128.969Z" fill="#389D2D"/>
<path d="M55.5439 184C58.5454 184 60.9785 181.567 60.9785 178.565C60.9785 175.564 58.5454 173.131 55.5439 173.131C52.5425 173.131 50.1094 175.564 50.1094 178.565C50.1094 181.567 52.5425 184 55.5439 184Z" fill="#ACD4A7"/>
<path d="M55.5498 181.826C57.3506 181.826 58.8105 180.366 58.8105 178.565C58.8105 176.765 57.3506 175.305 55.5498 175.305C53.7489 175.305 52.2891 176.765 52.2891 178.565C52.2891 180.366 53.7489 181.826 55.5498 181.826Z" fill="#389D2D"/>
<path d="M5.58299 131.143C8.58441 131.143 11.0175 128.709 11.0175 125.708C11.0175 122.707 8.58441 120.273 5.58299 120.273C2.58157 120.273 0.148438 122.707 0.148438 125.708C0.148438 128.709 2.58157 131.143 5.58299 131.143Z" fill="#ACD4A7"/>
<path d="M5.58104 128.969C7.38189 128.969 8.84177 127.509 8.84177 125.708C8.84177 123.907 7.38189 122.447 5.58104 122.447C3.78019 122.447 2.32031 123.907 2.32031 125.708C2.32031 127.509 3.78019 128.969 5.58104 128.969Z" fill="#389D2D"/>
<path d="M52.2179 2.42663L11.4971 43.1474C10.1568 44.4877 10.1568 46.6607 11.4971 48.001L52.2179 88.7218C53.5582 90.0621 55.7312 90.0621 57.0715 88.7218L97.7923 48.001C99.1326 46.6607 99.1326 44.4877 97.7923 43.1474L57.0715 2.42663C55.7312 1.08634 53.5582 1.08635 52.2179 2.42663Z" fill="url(#paint6_linear_4810_7629)" stroke="url(#paint7_linear_4810_7629)"/>
<path d="M52.3754 30.5372C52.3119 30.5487 51.9255 30.6236 51.5218 30.7041C47.3691 31.5267 43.5741 34.3513 41.5439 38.1365C40.7019 39.7012 40.1309 41.4616 39.8771 43.2679C39.7675 44.0905 39.7848 46.2938 39.9118 47.1222C40.1713 48.8249 40.5808 50.1366 41.2959 51.5805C42.115 53.2257 42.9974 54.428 44.3124 55.6936C45.5178 56.8556 46.5905 57.5978 48.1651 58.3686C49.1225 58.8346 49.9011 59.1222 50.9047 59.3753C52.2312 59.709 52.4735 59.7319 54.7747 59.7032C56.7645 59.6802 56.9087 59.6744 57.5431 59.5364C62.0995 58.5297 65.7965 55.6418 67.8036 51.5229C68.7495 49.59 69.1994 47.7722 69.2859 45.6264C69.4762 40.5354 67.0077 35.7434 62.6993 32.8498C61.4304 31.9984 59.6829 31.2218 58.1834 30.8479C56.8799 30.5143 56.6549 30.497 54.4863 30.5028C53.3905 30.5085 52.4388 30.52 52.3754 30.5372ZM55.9109 31.0665L56.2166 31.101L56.0262 31.4577C55.3053 32.8153 55.2073 32.9821 54.9824 33.1719C54.6997 33.4136 54.5267 33.4653 53.7019 33.5459C52.6464 33.6437 52.335 33.7415 52.0063 34.0694C51.7698 34.2995 51.591 34.6562 51.4007 35.2717C51.17 35.9965 50.9969 36.1173 50.6393 35.801C50.3279 35.5306 50.1549 35.2487 50.0914 34.892C50.0223 34.5181 49.9184 34.3397 49.5262 33.9313C49.1225 33.5056 48.7649 33.2697 48.4765 33.2237C48.3381 33.2007 48.1766 33.1604 48.1247 33.1317C48.0266 33.0857 47.8479 32.798 47.8479 32.6945C47.8479 32.6255 48.863 32.1537 49.6185 31.8718C50.3683 31.5957 51.5333 31.2851 52.3235 31.1585C53.4078 30.986 54.9016 30.9457 55.9109 31.0665ZM62.3706 33.5286C62.7397 33.7817 62.9704 34.0694 64.0028 35.5881C64.4007 36.1691 64.5796 36.2439 65.0006 35.9965L65.2428 35.8585L65.5773 36.2842C66.852 37.8949 67.7402 39.6667 68.2419 41.5938C68.3861 42.1288 68.6168 43.3944 68.5822 43.429C68.5707 43.4405 68.415 43.4865 68.2304 43.5382C67.6709 43.6821 67.4864 43.6188 66.8981 43.0896C66.3156 42.5661 65.71 42.2152 65.4216 42.2439C65.2601 42.2612 65.2371 42.2842 65.2255 42.4337C65.214 42.589 65.2774 42.6638 65.8542 43.1528C67.1346 44.2343 67.2269 44.3551 67.2269 44.8671C67.2269 45.2237 67.0769 45.6667 66.9154 45.7703C66.8519 45.8105 66.6154 45.8681 66.3905 45.8911C65.9061 45.9371 65.6639 46.0349 65.3409 46.2995C65.0986 46.4951 65.0409 46.639 65.1275 46.8575C65.1448 46.9093 65.3754 47.1049 65.6408 47.2947C66.1483 47.6629 66.5059 48.0195 66.5924 48.2496C66.6732 48.451 66.6616 48.8882 66.5809 49.0378C66.4943 49.2104 66.3502 49.3024 65.8657 49.5153C65.3062 49.7568 65.0064 50.01 64.8218 50.3954C64.5853 50.9017 64.5623 51.0397 64.5161 52.5009C64.4873 53.5364 64.4527 53.9448 64.3834 54.1289C64.1239 54.8192 62.9646 55.8259 61.2228 56.8729C60.3288 57.4137 60.1731 57.4309 60.1443 57.0052C60.1327 56.8327 60.1904 56.4875 60.3115 56.056C60.6518 54.7905 60.6633 54.7041 60.6288 54.3072C60.6115 54.0944 60.5249 53.6975 60.4442 53.4156C60.0463 52.0752 59.9078 51.3619 59.902 50.6888C59.8963 50.1884 59.804 49.567 59.706 49.3715C59.556 49.0896 59.4118 49.0665 58.1429 49.1068C57.099 49.1414 56.9491 49.1356 56.5454 49.0321C55.7725 48.8307 55.3342 48.4855 54.9939 47.7952C54.5209 46.8173 54.4229 45.6667 54.7459 44.706C55.1496 43.5152 56.2166 42.1231 57.2374 41.4616C57.8949 41.0358 58.4371 40.846 58.9677 40.846C59.2215 40.846 59.5214 40.8863 59.6713 40.9381C59.9193 41.0243 60.7268 41.4903 61.0844 41.7492C61.7419 42.2267 62.7743 42.4222 63.5125 42.2036C63.8701 42.1001 64.8218 41.3465 64.8506 41.1451C64.9083 40.7597 64.0259 40.4031 62.8723 40.3513C62.4802 40.334 62.1168 40.288 62.0361 40.242C61.9553 40.2017 61.7246 40.0291 61.517 39.8508C61.0498 39.4538 60.7326 39.2755 60.2481 39.1547C59.6425 38.9994 59.1811 39.1317 58.6505 39.6092C58.1891 40.0234 57.4163 40.334 56.8279 40.334C56.4473 40.334 56.2685 40.1614 56.2685 39.7875C56.2685 39.5689 56.2973 39.4884 56.43 39.3561C56.6319 39.1547 56.8856 39.0857 57.595 39.0397C57.8949 39.0167 58.1891 38.9879 58.2467 38.9706C58.4429 38.9189 58.3563 38.6543 57.9527 38.0905C57.5835 37.567 57.5431 37.5324 57.0644 37.2851C56.2281 36.8479 56.1243 36.7041 56.4415 36.3474C56.6434 36.1116 57.0702 35.962 57.5201 35.962C58.0276 35.962 58.2756 36.0655 58.6793 36.451C58.8754 36.6408 59.0946 36.8134 59.1696 36.8364C59.3772 36.8939 59.7579 36.8882 59.9482 36.8191C60.2597 36.7098 60.2597 36.5775 59.9367 35.7031C59.8271 35.4155 59.7291 35.0646 59.706 34.9208C59.654 34.5814 59.7809 34.2477 60.0347 34.0579C60.2481 33.9025 61.69 33.3905 61.9553 33.3791C62.0649 33.3791 62.2264 33.4366 62.3706 33.5286ZM46.0023 33.9716C46.0023 34.0924 46.2964 34.2995 46.8386 34.5698C47.5364 34.915 47.9517 35.3983 47.894 35.7952C47.8767 35.9218 47.8421 35.9332 47.2019 36.0023C46.4867 36.077 46.1406 36.1806 46.0773 36.3417C46.0195 36.4912 46.2099 36.6063 46.9077 36.8537C48.0959 37.2736 48.54 37.5613 48.54 37.9237C48.54 38.1308 48.3785 38.2918 48.0324 38.4414C47.7095 38.5794 47.4326 38.5565 47.2365 38.3724C47.1615 38.3033 47.0866 38.2516 47.075 38.2688C47.0635 38.2803 47.0116 38.5219 46.9655 38.8095C46.7693 39.8796 46.7059 39.9773 46.0715 40.1845C45.5293 40.3685 44.9872 40.7194 44.5431 41.1854C44.122 41.6284 44.0125 41.8872 43.9317 42.6121C43.8509 43.3254 43.8741 43.4059 44.3354 43.8776C44.618 44.1768 44.6757 44.2688 44.6757 44.4414C44.6757 44.7233 44.5777 44.9074 44.3585 45.0282C44.0528 45.1893 43.9144 45.1145 43.6664 44.637C42.9685 43.3081 42.461 42.9342 41.9881 43.4059C41.6362 43.7568 41.7862 44.2228 42.4148 44.7118C43.3492 45.4366 43.5626 45.7357 43.6491 46.4261C43.6779 46.6619 43.7298 46.9035 43.7587 46.9611C43.8683 47.1625 44.1739 47.243 44.8256 47.2315L45.437 47.2257L45.7543 47.4443C46.1637 47.7261 46.7636 48.3762 47.3173 49.1356C47.5595 49.4692 47.8825 49.8892 48.0382 50.0733C48.3554 50.4414 49.0994 50.9534 49.5781 51.1375C49.7512 51.2008 50.0799 51.3216 50.3106 51.4079C50.8067 51.5863 51.17 51.9026 51.2219 52.2017C51.268 52.4376 51.2161 52.5526 50.8758 52.9324C50.7374 53.0876 50.5067 53.4616 50.3626 53.7665C50.0338 54.4511 49.8723 54.6639 49.5262 54.8767C49.1398 55.1183 48.9841 55.2966 48.7361 55.7914C48.6092 56.033 48.3496 56.4415 48.1536 56.6888C47.9517 56.9361 47.7902 57.1605 47.7902 57.1778C47.7902 57.2008 47.7498 57.2641 47.7095 57.3216C47.6345 57.4194 47.5999 57.4137 47.1731 57.1548C46.827 56.9419 46.0426 56.4127 45.8984 56.2976C45.8869 56.2861 45.8292 55.9122 45.7716 55.4635C45.587 54.0828 45.4198 53.6284 44.9352 53.1625C44.4046 52.6562 44.0817 52.1327 43.8683 51.4596C43.7529 51.0857 43.7471 50.9879 43.7875 49.8834C43.8221 48.7444 43.8221 48.6869 43.701 48.4165C43.5453 48.0598 43.453 47.962 43.1473 47.8125C42.8878 47.6859 42.6686 47.4328 41.9881 46.4606C41.1402 45.2583 40.8576 44.637 40.6442 43.5325C40.5173 42.8997 40.5346 42.7329 40.8403 41.5306C41.2844 39.7703 42.3687 37.636 43.528 36.2381C44.1566 35.473 45.7946 33.8968 45.9619 33.8911C45.985 33.8911 46.0023 33.9313 46.0023 33.9716Z" fill="#EEEEEE"/>
<path d="M52.2755 7.80658L16.9346 43.1474C15.5943 44.4877 15.5943 46.6607 16.9346 48.001L52.2754 83.3419C53.6157 84.6821 55.7888 84.6821 57.1291 83.3419L92.4699 48.001C93.8102 46.6607 93.8102 44.4877 92.4699 43.1474L57.1291 7.80658C55.7888 6.46629 53.6157 6.46629 52.2755 7.80658Z" stroke="#A7A7A7" stroke-opacity="0.3"/>
<defs>
<linearGradient id="paint0_linear_4810_7629" x1="-1.40632" y1="118.864" x2="130.945" y2="118.864" gradientUnits="userSpaceOnUse">
<stop stop-color="#737373" stop-opacity="0.11"/>
<stop offset="1" stop-color="#D9D9D9" stop-opacity="0.2"/>
</linearGradient>
<linearGradient id="paint1_linear_4810_7629" x1="-1.40497" y1="118.867" x2="130.946" y2="118.867" gradientUnits="userSpaceOnUse">
<stop stop-color="#737373" stop-opacity="0.11"/>
<stop offset="1" stop-color="#D9D9D9" stop-opacity="0.2"/>
</linearGradient>
<radialGradient id="paint2_radial_4810_7629" cx="0" cy="0" r="1" gradientUnits="userSpaceOnUse" gradientTransform="translate(nan nan) rotate(nan) scale(nan nan)">
<stop stop-color="#389D2D" stop-opacity="0"/>
<stop offset="1" stop-color="#389D2D"/>
</radialGradient>
<radialGradient id="paint3_radial_4810_7629" cx="0" cy="0" r="1" gradientUnits="userSpaceOnUse" gradientTransform="translate(nan nan) rotate(nan) scale(nan nan)">
<stop stop-color="#389D2D" stop-opacity="0"/>
<stop offset="1" stop-color="#389D2D"/>
</radialGradient>
<radialGradient id="paint4_radial_4810_7629" cx="0" cy="0" r="1" gradientUnits="userSpaceOnUse" gradientTransform="translate(nan nan) rotate(nan) scale(nan nan)">
<stop stop-color="#389D2D" stop-opacity="0"/>
<stop offset="1" stop-color="#389D2D"/>
</radialGradient>
<radialGradient id="paint5_radial_4810_7629" cx="0" cy="0" r="1" gradientUnits="userSpaceOnUse" gradientTransform="translate(nan nan) rotate(nan) scale(nan nan)">
<stop stop-color="#389D2D" stop-opacity="0"/>
<stop offset="1" stop-color="#389D2D"/>
</radialGradient>
<linearGradient id="paint6_linear_4810_7629" x1="31.7458" y1="22.8987" x2="77.8595" y2="69.0124" gradientUnits="userSpaceOnUse">
<stop/>
<stop offset="1" stop-color="#666666"/>
</linearGradient>
<linearGradient id="paint7_linear_4810_7629" x1="31.7458" y1="22.8987" x2="77.8595" y2="69.0124" gradientUnits="userSpaceOnUse">
<stop/>
<stop offset="1" stop-color="#666666"/>
</linearGradient>
</defs>
</svg>

<svg width="111" height="184" fill="none" xmlns="http://www.w3.org/2000/svg"><path fill-rule="evenodd" clip-rule="evenodd" d="M49.75 60.022c3.296-1.9 8.642-1.9 11.939 0l41.793 24.085a3.81 3.81 0 0 1 1.909 3.254l.738 55.295c0 3.8-2.672 8.421-5.969 10.321L56.857 177.59a3.814 3.814 0 0 1-3.788-.011l-41.771-24.073c-3.297-1.9-5.97-6.521-5.97-10.321l.001-54.647c0-1.346.71-2.593 1.869-3.28l42.551-25.236zm10.745.688 41.794 24.086a3.813 3.813 0 0 1 1.909 3.253l.737 55.295-.006.287c-.128 2.982-2.215 6.498-4.769 7.97l-43.303 24.613a3.812 3.812 0 0 1-3.788-.012L11.298 152.13c-2.555-1.473-4.642-4.988-4.77-7.97l-.006-.288V89.226c0-1.347.71-2.594 1.868-3.28L50.943 60.71l.252-.139c2.652-1.38 6.745-1.334 9.3.139z" fill="url(#a)"/><path d="M104.199 88.052a3.811 3.811 0 0 0-1.909-3.253L60.496 60.712c-2.555-1.472-6.648-1.519-9.3-.138l-.251.139L8.392 85.948a3.812 3.812 0 0 0-1.869 3.28v54.646l.006.288c.128 2.982 2.215 6.497 4.77 7.97l41.771 24.072a3.814 3.814 0 0 0 3.789.011l43.302-24.612c2.555-1.473 4.641-4.988 4.77-7.971l.006-.286-.738-55.296z" fill="url(#b)"/><path d="M104.199 88.052a3.811 3.811 0 0 0-1.909-3.253L60.496 60.712c-2.555-1.472-6.648-1.519-9.3-.138l-.251.139L8.392 85.948a3.812 3.812 0 0 0-1.869 3.28v54.646l.006.288c.128 2.982 2.215 6.497 4.77 7.97l41.771 24.072a3.814 3.814 0 0 0 3.789.011l43.302-24.612c2.555-1.473 4.641-4.988 4.77-7.971l.006-.286-.738-55.296z" fill="#F9F9F9"/><path d="M62.71 138.441a6.833 6.833 0 0 1 6.86 6.862 6.796 6.796 0 0 1-1.051 3.659l4.696 4.727-2.12 2.12-4.757-4.681a6.863 6.863 0 0 1-3.629 1.036 6.832 6.832 0 0 1-6.861-6.861 6.833 6.833 0 0 1 6.861-6.862zm0 3.05a3.81 3.81 0 0 0-2.695 6.507 3.812 3.812 0 1 0 2.694-6.507zm-8.387-15.248a6.099 6.099 0 0 1 6.1 6.099 6.159 6.159 0 0 1-1.251 3.705 9.687 9.687 0 0 0-3.461 2.242l-1.388.152a6.098 6.098 0 1 1 0-12.198zm-12.198 24.396v-3.049c0-3.233 5.047-5.885 11.436-6.099a10.006 10.006 0 0 0-.763 3.812c0 1.967.58 3.812 1.525 5.336H42.125z" fill="#389D2D"/><path d="m53.016 66.456-37.38 21.58c-1.641.949-1.641 2.485 0 3.433l36.232 20.918c1.641.948 4.303.948 5.944 0l37.38-21.58c1.641-.948 1.641-2.485 0-3.433L58.96 66.456c-1.642-.948-4.303-.948-5.944 0z" stroke="#DDD"/><path d="M104.896 131.143a5.435 5.435 0 1 0-.002-10.87 5.435 5.435 0 0 0 .002 10.87z" fill="#ACD4A7"/><path d="M104.901 128.969a3.261 3.261 0 1 0 0-6.522 3.261 3.261 0 0 0 0 6.522z" fill="#389D2D"/><path d="M55.544 184a5.435 5.435 0 1 0 0-10.87 5.435 5.435 0 0 0 0 10.87z" fill="#ACD4A7"/><path d="M55.55 181.826a3.26 3.26 0 1 0 0-6.522 3.26 3.26 0 0 0 0 6.522z" fill="#389D2D"/><path d="M5.583 131.143a5.435 5.435 0 1 0-.001-10.87 5.435 5.435 0 0 0 .001 10.87z" fill="#ACD4A7"/><path d="M5.581 128.969a3.26 3.26 0 1 0 0-6.522 3.26 3.26 0 0 0 0 6.522z" fill="#389D2D"/><path d="m52.218 2.427-40.72 40.72a3.432 3.432 0 0 0 0 4.854l40.72 40.72a3.432 3.432 0 0 0 4.853 0l40.721-40.72a3.432 3.432 0 0 0 0-4.854l-40.72-40.72a3.432 3.432 0 0 0-4.854 0z" fill="url(#c)" stroke="url(#d)"/><path d="M52.375 30.537c-.063.012-.45.087-.853.167-4.153.823-7.948 3.647-9.978 7.432a15.421 15.421 0 0 0-1.667 5.132c-.11.822-.092 3.026.035 3.854.26 1.703.669 3.015 1.384 4.459.819 1.645 1.701 2.847 3.016 4.113 1.206 1.162 2.279 1.904 3.853 2.675a13.2 13.2 0 0 0 2.74 1.006c1.326.334 1.569.357 3.87.328 1.99-.023 2.134-.029 2.768-.167 4.556-1.006 8.253-3.894 10.26-8.013.947-1.933 1.396-3.75 1.483-5.897.19-5.09-2.278-9.883-6.587-12.776-1.269-.852-3.016-1.628-4.516-2.002-1.303-.334-1.528-.351-3.697-.345-1.095.006-2.047.017-2.11.034zm3.536.53.306.034-.19.357c-.722 1.357-.82 1.524-1.045 1.714-.282.242-.455.293-1.28.374-1.056.098-1.367.196-1.696.523-.236.23-.415.587-.605 1.203-.231.724-.404.845-.762.529-.311-.27-.484-.552-.548-.909-.069-.374-.173-.552-.565-.96-.404-.426-.761-.662-1.05-.708a1.568 1.568 0 0 1-.351-.092c-.098-.046-.277-.334-.277-.438 0-.069 1.015-.54 1.77-.822.75-.276 1.915-.587 2.706-.713 1.084-.173 2.578-.213 3.587-.092zm6.46 2.462c.369.253.6.54 1.632 2.06.398.58.577.655.998.407l.242-.138.334.426a14.281 14.281 0 0 1 2.665 5.31c.144.535.375 1.8.34 1.835a3.047 3.047 0 0 1-.352.11c-.56.143-.744.08-1.332-.45-.582-.523-1.188-.874-1.476-.845-.162.017-.185.04-.197.19-.011.155.052.23.63.719 1.28 1.081 1.372 1.202 1.372 1.714 0 .357-.15.8-.312.903-.063.04-.3.098-.525.121-.484.046-.726.144-1.05.409-.241.195-.3.339-.213.558.018.051.248.247.514.437.507.368.865.724.951.955.081.201.07.638-.011.788-.087.172-.23.264-.715.477-.56.242-.86.495-1.044.88-.237.507-.26.645-.306 2.106-.029 1.035-.063 1.444-.133 1.628-.26.69-1.418 1.697-3.16 2.744-.894.54-1.05.558-1.079.132-.011-.172.046-.518.168-.949.34-1.265.351-1.352.317-1.749a5.732 5.732 0 0 0-.185-.891c-.398-1.34-.536-2.054-.542-2.727-.006-.5-.098-1.122-.196-1.318-.15-.281-.294-.305-1.563-.264-1.044.034-1.194.029-1.598-.075-.773-.201-1.21-.546-1.551-1.237-.473-.978-.571-2.128-.248-3.089.404-1.19 1.47-2.583 2.491-3.244.658-.426 1.2-.616 1.73-.616.255 0 .554.04.704.092.248.086 1.056.552 1.413.811.658.478 1.69.673 2.428.455.358-.104 1.31-.858 1.339-1.059.057-.385-.825-.742-1.979-.794-.392-.017-.755-.063-.836-.109a3.974 3.974 0 0 1-.519-.391c-.467-.397-.784-.575-1.269-.696-.605-.156-1.067-.023-1.597.454-.462.414-1.235.725-1.823.725-.38 0-.56-.173-.56-.547 0-.218.03-.299.162-.43.202-.202.456-.271 1.165-.317.3-.023.594-.052.652-.07.196-.051.11-.316-.294-.88-.37-.523-.41-.558-.889-.805-.836-.437-.94-.58-.623-.938.202-.235.63-.385 1.08-.385.507 0 .755.103 1.158.489.196.19.416.362.49.385.208.058.589.052.78-.017.31-.11.31-.242-.012-1.116a5.134 5.134 0 0 1-.231-.782.901.901 0 0 1 .329-.863c.213-.155 1.655-.667 1.92-.679.11 0 .271.058.416.15zm-16.369.443c0 .12.294.328.837.598.697.345 1.113.828 1.055 1.225-.017.127-.052.138-.692.207-.715.075-1.061.179-1.125.34-.057.15.133.264.83.512 1.189.42 1.633.707 1.633 1.07 0 .207-.161.368-.508.517-.322.138-.6.115-.795-.069-.076-.069-.15-.12-.162-.103a4.17 4.17 0 0 0-.11.54c-.196 1.07-.26 1.168-.894 1.376a3.892 3.892 0 0 0-1.528 1c-.421.443-.53.702-.611 1.427-.081.713-.058.794.403 1.266.283.299.34.39.34.563 0 .282-.097.466-.316.587-.306.161-.445.087-.693-.391-.697-1.329-1.205-1.703-1.678-1.231-.352.35-.202.817.427 1.306.934.725 1.148 1.024 1.234 1.714.029.236.08.477.11.535.11.202.415.282 1.067.27l.611-.005.317.218c.41.282 1.01.932 1.563 1.692.242.333.566.753.721.937.317.368 1.061.88 1.54 1.065l.733.27c.496.178.859.495.91.794.047.236-.005.35-.345.73-.139.156-.37.53-.513.834-.33.685-.49.898-.837 1.11-.386.242-.542.42-.79.915a6.96 6.96 0 0 1-.582.898c-.202.247-.364.471-.364.489 0 .023-.04.086-.08.144-.075.097-.11.092-.537-.167a24.674 24.674 0 0 1-1.275-.857c-.011-.012-.069-.386-.126-.834-.185-1.381-.352-1.836-.837-2.301a3.833 3.833 0 0 1-1.067-1.703c-.115-.374-.12-.472-.08-1.577.034-1.139.034-1.196-.087-1.467-.156-.356-.248-.454-.554-.603-.26-.127-.478-.38-1.159-1.352-.848-1.203-1.13-1.824-1.344-2.928-.127-.633-.11-.8.196-2.002.444-1.76 1.529-3.895 2.688-5.293.629-.765 2.267-2.341 2.434-2.347.023 0 .04.04.04.08z" fill="#EEE"/><path d="m52.276 7.807-35.341 35.34a3.432 3.432 0 0 0 0 4.854l35.34 35.34a3.432 3.432 0 0 0 4.854 0l35.34-35.34a3.432 3.432 0 0 0 0-4.854L57.13 7.807a3.432 3.432 0 0 0-4.853 0z" stroke="#A7A7A7" stroke-opacity=".3"/><defs><linearGradient id="a" x1="-1.406" y1="118.864" x2="130.945" y2="118.864" gradientUnits="userSpaceOnUse"><stop stop-color="#737373" stop-opacity=".11"/><stop offset="1" stop-color="#D9D9D9" stop-opacity=".2"/></linearGradient><linearGradient id="b" x1="-1.405" y1="118.867" x2="130.946" y2="118.867" gradientUnits="userSpaceOnUse"><stop stop-color="#737373" stop-opacity=".11"/><stop offset="1" stop-color="#D9D9D9" stop-opacity=".2"/></linearGradient><linearGradient id="c" x1="31.746" y1="22.899" x2="77.859" y2="69.012" gradientUnits="userSpaceOnUse"><stop/><stop offset="1" stop-color="#666"/></linearGradient><linearGradient id="d" x1="31.746" y1="22.899" x2="77.859" y2="69.012" gradientUnits="userSpaceOnUse"><stop/><stop offset="1" stop-color="#666"/></linearGradient></defs></svg>
